images/badge_logo.svg

<?xml version="1.0" encoding="UTF-8" standalone="no"?>
<svg xmlns:dc="http://purl.org/dc/elements/1.1/" xmlns:cc="http://creativecommons.org/ns#" xmlns:rdf="http://www.w3.org/1999/02/22-rdf-syntax-ns#" xmlns:svg="http://www.w3.org/2000/svg" xmlns="http://www.w3.org/2000/svg" xmlns:sodipodi="http://sodipodi.sourceforge.net/DTD/sodipodi-0.dtd" xmlns:inkscape="http://www.inkscape.org/namespaces/inkscape" width="17.679934" height="20.005899" viewBox="0 0 17.679934 20.005899" fill="none" version="1.1" id="svg8" sodipodi:docname="badge_logo_new.svg" inkscape:version="1.0.2 (e86c870879, 2021-01-15)">
   <metadata id="metadata14">
      <rdf:RDF>
         <cc:Work rdf:about="">
            <dc:format>image/svg+xml</dc:format>
            <dc:type rdf:resource="http://purl.org/dc/dcmitype/StillImage" />
            <dc:title></dc:title>
         </cc:Work>
      </rdf:RDF>
   </metadata>
   <defs id="defs12">
      <clipPath clipPathUnits="userSpaceOnUse" id="clipPath849">
         <path id="path851" style="fill:#000000;fill-opacity:0.807843;stroke-width:21.7964;stroke-linecap:round;stroke-linejoin:round" d="M -0.75976562,-0.9296875 V 22.861328 H 19.291016 V -0.9296875 Z M 3.3769531,5.7226562 10.5625,8.3789062 10.517578,8.5 h 0.300781 v 13 H 10.119141 V 8.9609375 L 3.1347656,6.3789062 Z" />
      </clipPath>
   </defs>
   <sodipodi:namedview pagecolor="#ffffff" bordercolor="#666666" borderopacity="1" objecttolerance="10" gridtolerance="10" guidetolerance="10" inkscape:pageopacity="0" inkscape:pageshadow="2" inkscape:window-width="1920" inkscape:window-height="1010" id="namedview10" showgrid="false" inkscape:pagecheckerboard="true" inkscape:zoom="31.880106" inkscape:cx="6.4993872" inkscape:cy="9.9655942" inkscape:window-x="0" inkscape:window-y="33" inkscape:window-maximized="1" inkscape:current-layer="svg8" />
   <path d="M 17.8496,6.83082 C 17.8541,6.67521 17.7992,6.53791 17.6939,6.45095 17.639,6.40519 17.4788,6.3045 17.2409,6.40061 l -6.4806,2.5675 C 10.0006,8.56537 9.22713,8.12601 8.49944,7.66834 8.35299,6.72555 8.6642,5.56308 10.7878,5.05965 11.0029,5.01388 11.0303,5.00473 11.0441,5.00015 11.1905,4.93608 11.3095,4.81708 11.3782,4.66148 L 11.3919,4.63402 V 4.62029 C 11.4102,4.58367 11.4148,4.54706 11.4193,4.5196 11.4468,4.364 11.4377,4.23585 11.3873,4.13516 11.3232,4.01159 11.218,3.91091 11.0624,3.83768 L 11.0486,3.82853 C 9.69853,3.10999 8.72827,2.77132 8.10127,2.61114 H 8.09669 L 8.15619,2.45095 8.33468,1.92006 8.3301,1.87429 C 8.3118,1.74615 8.1928,1.49443 7.87701,1.45324 V 1.45782 C 7.69395,1.44409 7.26832,1.62258 6.68708,2.25873 L 6.8015,1.05965 6.79692,1.03219 C 6.76946,0.803355 6.6642,0.634018 6.49944,0.551638 6.38045,0.492142 6.18365,0.455529 5.91363,0.606558 5.86329,0.634018 5.80379,0.675208 5.74429,0.720975 4.6642,1.58596 4.44452,3.04592 4.41248,3.83768 v 0.00915 0.00916 c 0,0.02288 0,0.14645 0,0.17391 0,0.01373 0,0.03204 0,0.04577 v 0.02288 c 0,0.00458 0,0.00458 0,0.00915 L 4.42164,6.88116 3.14475,6.37315 C 2.94338,6.29077 2.8015,6.35942 2.73743,6.40519 2.54978,6.53333 2.55894,6.75759 2.56351,6.81709 L 2.55894,9.77361 C 2.50859,9.77818 2.46283,9.78276 2.41248,9.78734 c -0.00915,0 -0.0183,0 -0.02288,0.00457 -0.64988,0.07781 -1.30435,0.35699 -1.949655,0.84209 -0.02746,0.0229 -0.050344,0.0458 -0.06865,0.0778 l -0.201373,0.1465 0.183066,0.1602 c 0.01373,0.0274 0.036613,0.0549 0.059497,0.0778 0.494279,0.4439 0.759725,1.1029 0.709385,1.762 l -0.192223,2.5171 c -0.05492,0.7506 0.183063,1.4829 0.672773,2.055 0.48055,0.5629 1.18535,0.9199 1.93135,0.9748 0.07322,0.0046 0.14187,0.0091 0.2151,0.0091 0.00458,0 0.00915,0 0.01373,0 0.00458,0 0.00915,0 0.01831,0 0.08695,0 0.17391,-0.0045 0.26086,-0.0137 0.16476,-0.0137 0.32495,-0.0458 0.47598,-0.0915 l -0.00916,0.0183 c 1.74371,0.6865 4.76431,1.881 5.43707,2.1373 0.03662,0.0137 0.07784,0.0229 0.11444,0.0229 0.0229,0 0.0457,-0.0046 0.0686,-0.0092 0.0412,0.0137 0.0824,0.0275 0.1236,0.0275 0.0458,0 0.087,-0.0092 0.1281,-0.0229 l 7.1305,-2.7918 c 0.2059,-0.0824 0.3432,-0.2791 0.3387,-0.5034 z M 11.0624,4.28619 11.0715,4.30908 11.0303,4.3045 C 11.0395,4.29992 11.0486,4.29077 11.0624,4.28619 Z M 7.85871,1.82853 C 7.90905,1.84226 7.93651,1.86972 7.95024,1.8926 L 7.80836,2.31823 7.73056,2.52418 C 7.57953,2.49672 7.32324,2.46011 7.03033,2.4418 7.49715,1.95667 7.79006,1.85141 7.85871,1.82853 Z M 4.6047,17.7461 C 4.59097,17.737 4.57724,17.7324 4.56351,17.7278 4.22484,17.5905 3.92278,17.3709 3.68937,17.0963 3.28663,16.6249 3.08983,16.0253 3.1356,15.4075 l 0.19222,-2.5172 c 0.05492,-0.7277 -0.20138,-1.4599 -0.69566,-1.9954 0.30206,-0.206 0.60412,-0.3616 0.90618,-0.4668 0.02289,-0.0092 0.04577,-0.0183 0.06865,-0.0321 0.17392,0.055 0.34783,0.1236 0.52174,0.2106 1.37758,0.7048 2.18764,2.2105 2.06407,3.8306 L 6.10127,15.65 c -0.0778,0.9566 -0.68192,1.7712 -1.49657,2.0961 z m -0.77345,0.1557 c -0.01831,0 -0.03661,0 -0.05492,0 -0.05492,0 -0.11442,0 -0.16934,-0.0046 C 2.99372,17.8514 2.41248,17.5585 2.01889,17.0963 1.61615,16.6249 1.41935,16.0253 1.46512,15.4075 L 1.65734,12.8903 C 1.71226,12.158 1.45596,11.4304 0.961684,10.8949 1.53377,10.5059 2.11042,10.2999 2.67793,10.2725 c -0.17849,0.1052 -0.36156,0.2196 -0.54005,0.3569 -0.07322,0.055 -0.11441,0.1373 -0.11899,0.2289 -0.00457,0.0915 0.03204,0.1785 0.10069,0.238 0.49428,0.4439 0.75972,1.1029 0.70938,1.762 l -0.19222,2.5171 c -0.05492,0.7506 0.18307,1.4829 0.67277,2.055 0.15561,0.183 0.3341,0.3432 0.53089,0.4805 C 3.83583,17.9018 3.83125,17.9018 3.83125,17.9018 Z" fill="#ffffff" id="path2" clip-path="url(#clipPath849)" transform="translate(-0.169922,-0.50000014)" />
</svg>

<svg width="18" height="22" viewBox="0 0 18 22" fill="none" xmlns="http://www.w3.org/2000/svg">
  <path d="M17.8496 6.83082C17.8541 6.67521 17.7992 6.53791 17.6939 6.45095C17.639 6.40519 17.4788 6.3045 17.2409 6.40061L10.7603 8.96811C10.0006 8.56537 9.22713 8.12601 8.49944 7.66834C8.35299 6.72555 8.6642 5.56308 10.7878 5.05965C11.0029 5.01388 11.0303 5.00473 11.0441 5.00015C11.1905 4.93608 11.3095 4.81708 11.3782 4.66148L11.3919 4.63402V4.62029C11.4102 4.58367 11.4148 4.54706 11.4193 4.5196C11.4468 4.364 11.4377 4.23585 11.3873 4.13516C11.3232 4.01159 11.218 3.91091 11.0624 3.83768L11.0486 3.82853C9.69853 3.10999 8.72827 2.77132 8.10127 2.61114H8.09669L8.15619 2.45095L8.33468 1.92006L8.3301 1.87429C8.3118 1.74615 8.1928 1.49443 7.87701 1.45324V1.45782C7.69395 1.44409 7.26832 1.62258 6.68708 2.25873L6.8015 1.05965L6.79692 1.03219C6.76946 0.803355 6.6642 0.634018 6.49944 0.551638C6.38045 0.492142 6.18365 0.455529 5.91363 0.606558C5.86329 0.634018 5.80379 0.675208 5.74429 0.720975C4.6642 1.58596 4.44452 3.04592 4.41248 3.83768V3.84683V3.85599C4.41248 3.87887 4.41248 4.00244 4.41248 4.0299C4.41248 4.04363 4.41248 4.06194 4.41248 4.07567V4.09855C4.41248 4.10313 4.41248 4.10313 4.41248 4.1077L4.42164 6.88116L3.14475 6.37315C2.94338 6.29077 2.8015 6.35942 2.73743 6.40519C2.54978 6.53333 2.55894 6.75759 2.56351 6.81709L2.55894 9.77361C2.50859 9.77818 2.46283 9.78276 2.41248 9.78734C2.40333 9.78734 2.39418 9.78734 2.3896 9.79191C1.73972 9.86972 1.08525 10.1489 0.439945 10.634C0.412485 10.6569 0.389601 10.6798 0.371295 10.7118L0.169922 10.8583L0.352988 11.0185C0.366718 11.0459 0.389601 11.0734 0.412485 11.0963C0.906764 11.5402 1.17221 12.1992 1.12187 12.8583L0.929647 15.3754C0.874727 16.126 1.11271 16.8583 1.60242 17.4304C2.08297 17.9933 2.78777 18.3503 3.53377 18.4052C3.60699 18.4098 3.67564 18.4143 3.74887 18.4143C3.75345 18.4143 3.75802 18.4143 3.7626 18.4143C3.76718 18.4143 3.77175 18.4143 3.78091 18.4143C3.86786 18.4143 3.95482 18.4098 4.04177 18.4006C4.20653 18.3869 4.36672 18.3548 4.51775 18.3091L4.50859 18.3274C6.2523 19.0139 9.2729 20.2084 9.94566 20.4647C9.98228 20.4784 10.0235 20.4876 10.0601 20.4876C10.083 20.4876 10.1058 20.483 10.1287 20.4784C10.1699 20.4921 10.2111 20.5059 10.2523 20.5059C10.2981 20.5059 10.3393 20.4967 10.3804 20.483L17.5109 17.6912C17.7168 17.6088 17.8541 17.4121 17.8496 17.1878V6.83082ZM11.0624 4.28619L11.0715 4.30908L11.0303 4.3045C11.0395 4.29992 11.0486 4.29077 11.0624 4.28619ZM7.85871 1.82853C7.90905 1.84226 7.93651 1.86972 7.95024 1.8926L7.80836 2.31823L7.73056 2.52418C7.57953 2.49672 7.32324 2.46011 7.03033 2.4418C7.49715 1.95667 7.79006 1.85141 7.85871 1.82853ZM4.6047 17.7461C4.59097 17.737 4.57724 17.7324 4.56351 17.7278C4.22484 17.5905 3.92278 17.3709 3.68937 17.0963C3.28663 16.6249 3.08983 16.0253 3.1356 15.4075L3.32782 12.8903C3.38274 12.1626 3.12644 11.4304 2.63216 10.8949C2.93422 10.6889 3.23628 10.5333 3.53834 10.4281C3.56123 10.4189 3.58411 10.4098 3.60699 10.396C3.78091 10.451 3.95482 10.5196 4.12873 10.6066C5.50631 11.3114 6.31637 12.8171 6.1928 14.4372L6.10127 15.65C6.02347 16.6066 5.41935 17.4212 4.6047 17.7461ZM3.83125 17.9018C3.81294 17.9018 3.79464 17.9018 3.77633 17.9018C3.72141 17.9018 3.66191 17.9018 3.60699 17.8972C2.99372 17.8514 2.41248 17.5585 2.01889 17.0963C1.61615 16.6249 1.41935 16.0253 1.46512 15.4075L1.65734 12.8903C1.71226 12.158 1.45596 11.4304 0.961684 10.8949C1.53377 10.5059 2.11042 10.2999 2.67793 10.2725C2.49944 10.3777 2.31637 10.4921 2.13788 10.6294C2.06466 10.6844 2.02347 10.7667 2.01889 10.8583C2.01432 10.9498 2.05093 11.0368 2.11958 11.0963C2.61386 11.5402 2.8793 12.1992 2.82896 12.8583L2.63674 15.3754C2.58182 16.126 2.81981 16.8583 3.30951 17.4304C3.46512 17.6134 3.64361 17.7736 3.8404 17.9109C3.83583 17.9018 3.83125 17.9018 3.83125 17.9018Z" fill="white" />
</svg>
